launcher/android/assets/skins/day/svg/mapWherigo0.svg

<svg enable-background="new 0 0 57.79 60.00" height="60.0001" viewBox="0 0 57.79 60" width="57.7884" xmlns="http://www.w3.org/2000/svg"><g stroke-linejoin="round" stroke-width=".2"><g fill="#808080"><path d="m31.5021 5.86609c5.3603.40979 9.3734 2.07641 13.1583 4.57791l3.4283-4.49222c-4.5426-3.42834-10.0829-5.585691-16.1025-5.94921652z"/><path d="m4.6514 24.7421c.25659-.9618.56991-1.8974.9364-2.804l-4.0238-1.3844c-.36402 1.0813-.668248 2.19-.908727 3.3219z"/><path d="m26.8381 57.1787c-.6954-.1123-1.3825-.2495-2.0601-.4108l-.4174 2.636c.7428.1486 1.4948.2703 2.2546.364z"/><path d="m21.4436 55.7555c-4.4939-1.6721-8.4334-4.4365-11.4416-7.9613l-2.32036 2.1647c3.48326 3.8392 7.95126 6.7822 12.97956 8.4618z"/><path d="m8.44415 45.7816c-.48541-.6937-.93744-1.4108-1.35363-2.1492l-2.84662 1.7205c.50235.829 1.04431 1.6316 1.62307 2.4055z"/><path d="m55.5388 36.962c-.3469 1.9148-.845 3.7627-1.5289 5.5148l1.8413.876c.8054-1.9022 1.3766-3.89 1.6845-5.9197z"/><path d="m53.0518 44.6222c-.836 1.6477-1.8681 3.1902-3.1301 4.5992l1.435 1.2858c1.3188-1.5112 2.4613-3.1533 3.4028-4.8889z"/><path d="m47.8612 51.2238c-.5896.4991-1.2174.9755-1.8854 1.4274l1.2541 1.7101c.6884-.5228 1.3494-1.0753 1.981-1.6546z"/><path d="m54.2866 22.4086c.5293 1.6001 1.0225 3.8955 1.4797 7.3952l1.705-.0162c-.4478-3.5549-1.023-6.0452-1.6748-7.8436z"/><path d="m51.1125 17.4066c.9766.8983 1.8569 1.3372 2.6419 3.2796l1.2567-.3164c-.8986-2.0297-1.9723-2.7662-3.0284-3.3642z"/><path d="m57.743 32.3346-1.6901-.1325c.0104.0947.0208.19.0311.2861-.0447.6506-.1026 1.2966-.1749 1.9368l1.8793.2608c.0252-.7814.0106-1.5659-.0454-2.3512z"/><path d="m30.3985 60.0001c5.1179 0 9.8222-1.3584 13.8349-3.6553l-1.1447-2.0225c-3.1368 1.5457-6.9707 2.6578-11.6362 3.2253-.9202 0-1.8309-.0433-2.7298-.1282l-.0426 2.533c.5693.0316 1.1423.0477 1.7184.0477z"/><path d="m0 30.1379c0 4.4804 1.00076 8.7089 2.78522 12.4975l3.0899-1.4558c-1.32403-3.076-2.05621-6.4485-2.05621-9.9943 0-1.3466.10351-2.6595.30319-3.9337l-3.93933-.4417c-.1207278 1.0928-.18277 2.2033-.18277 3.328z"/><path d="m49.0336 13.7125c1.31-.7037 4.3565-2.657 3.6964-3.4195-.6504-.75137-1.3372-1.47-2.0575-2.15299l-3.7361 3.91939c.6967.5259 1.3933 1.0779 2.0972 1.6531z"/><path d="m25.7026.28064.7498 5.92383c.71-.10913 1.4293-.19397 2.1569-.25379l-.2164-5.95068c-.9075.0534668-1.8049.147583-2.6903.28064z"/><path d="m2.58023 17.9452 4.01529 1.8203c3.42908-6.5159 9.75748-11.24804 17.41618-13.08252l-1.3468-5.783078c-8.9639 2.318478-16.36922 8.685428-20.08467 17.045298z"/></g><ellipse cx="29.6833" cy="31.5941" fill="#12508c" rx="23.4503" ry="23.6036"/><path d="m20.027 30.1105 18.9034-7.7658-7.9701 19.2099z" fill="#fff"/></g></svg>

﻿<?xml version="1.0" encoding="utf-8"?>
<!DOCTYPE svg PUBLIC "-//W3C//DTD SVG 1.1//EN" "http://www.w3.org/Graphics/SVG/1.1/DTD/svg11.dtd">
<svg xmlns="http://www.w3.org/2000/svg" xmlns:xlink="http://www.w3.org/1999/xlink" version="1.1" baseProfile="full" width="57.7884" height="60.0001" viewBox="0 0 57.79 60.00" enable-background="new 0 0 57.79 60.00" xml:space="preserve">
	<g>
		<g>
			<path fill="#808080" fill-opacity="1" stroke-width="0.2" stroke-linejoin="round" d="M 31.5021,5.86609C 36.8624,6.27588 40.8755,7.9425 44.6604,10.444L 48.0887,5.95178C 43.5461,2.52344 38.0058,0.366089 31.9862,0.00256348L 31.5021,5.86609 Z "/>
			<path fill="#808080" fill-opacity="1" stroke-width="0.2" stroke-linejoin="round" d="M 4.6514,24.7421C 4.90799,23.7803 5.22131,22.8447 5.5878,21.9381L 1.564,20.5537C 1.19998,21.635 0.895752,22.7437 0.655273,23.8756L 4.6514,24.7421 Z "/>
			<path fill="#808080" fill-opacity="1" stroke-width="0.2" stroke-linejoin="round" d="M 26.8381,57.1787C 26.1427,57.0664 25.4556,56.9292 24.778,56.7679L 24.3606,59.4039C 25.1034,59.5525 25.8554,59.6742 26.6152,59.7679L 26.8381,57.1787 Z "/>
			<path fill="#808080" fill-opacity="1" stroke-width="0.2" stroke-linejoin="round" d="M 21.4436,55.7555C 16.9497,54.0834 13.0102,51.319 10.002,47.7942L 7.68164,49.9589C 11.1649,53.7981 15.6329,56.7411 20.6612,58.4207L 21.4436,55.7555 Z "/>
			<path fill="#808080" fill-opacity="1" stroke-width="0.2" stroke-linejoin="round" d="M 8.44415,45.7816C 7.95874,45.0879 7.50671,44.3708 7.09052,43.6324L 4.2439,45.3529C 4.74625,46.1819 5.28821,46.9845 5.86697,47.7584L 8.44415,45.7816 Z "/>
			<path fill="#808080" fill-opacity="1" stroke-width="0.2" stroke-linejoin="round" d="M 55.5388,36.962C 55.1919,38.8768 54.6938,40.7247 54.0099,42.4768L 55.8512,43.3528C 56.6566,41.4506 57.2278,39.4628 57.5357,37.4331L 55.5388,36.962 Z "/>
			<path fill="#808080" fill-opacity="1" stroke-width="0.2" stroke-linejoin="round" d="M 53.0518,44.6222C 52.2158,46.2699 51.1837,47.8124 49.9217,49.2214L 51.3567,50.5072C 52.6755,48.996 53.818,47.3539 54.7595,45.6183L 53.0518,44.6222 Z "/>
			<path fill="#808080" fill-opacity="1" stroke-width="0.2" stroke-linejoin="round" d="M 47.8612,51.2238C 47.2716,51.7229 46.6438,52.1993 45.9758,52.6512L 47.2299,54.3613C 47.9183,53.8385 48.5793,53.286 49.2109,52.7067L 47.8612,51.2238 Z "/>
			<path fill="#808080" fill-opacity="1" stroke-width="0.2" stroke-linejoin="round" d="M 54.2866,22.4086C 54.8159,24.0087 55.3091,26.3041 55.7663,29.8038L 57.4713,29.7876C 57.0235,26.2327 56.4483,23.7424 55.7965,21.944L 54.2866,22.4086 Z "/>
			<path fill="#808080" fill-opacity="1" stroke-width="0.2" stroke-linejoin="round" d="M 51.1125,17.4066C 52.0891,18.3049 52.9694,18.7438 53.7544,20.6862L 55.0111,20.3698C 54.1125,18.3401 53.0388,17.6036 51.9827,17.0056L 51.1125,17.4066 Z "/>
			<path fill="#808080" fill-opacity="1" stroke-width="0.2" stroke-linejoin="round" d="M 57.743,32.3346L 56.0529,32.2021C 56.0633,32.2968 56.0737,32.3921 56.084,32.4882C 56.0393,33.1388 55.9814,33.7848 55.9091,34.425L 57.7884,34.6858C 57.8136,33.9044 57.799,33.1199 57.743,32.3346 Z "/>
			<path fill="#808080" fill-opacity="1" stroke-width="0.2" stroke-linejoin="round" d="M 30.3985,60.0001C 35.5164,60.0001 40.2207,58.6417 44.2334,56.3448L 43.0887,54.3223C 39.9519,55.868 36.118,56.9801 31.4525,57.5476C 30.5323,57.5476 29.6216,57.5043 28.7227,57.4194L 28.6801,59.9524C 29.2494,59.984 29.8224,60.0001 30.3985,60.0001 Z "/>
			<path fill="#808080" fill-opacity="1" stroke-width="0.2" stroke-linejoin="round" d="M 0,30.1379C 0,34.6183 1.00076,38.8468 2.78522,42.6354L 5.87512,41.1796C 4.55109,38.1036 3.81891,34.7311 3.81891,31.1853C 3.81891,29.8387 3.92242,28.5258 4.1221,27.2516L 0.18277,26.8099C 0.0620422,27.9027 0,29.0132 0,30.1379 Z "/>
			<path fill="#808080" fill-opacity="1" stroke-width="0.2" stroke-linejoin="round" d="M 49.0336,13.7125C 50.3436,13.0088 53.3901,11.0555 52.73,10.293C 52.0796,9.54163 51.3928,8.823 50.6725,8.14001L 46.9364,12.0594C 47.6331,12.5853 48.3297,13.1373 49.0336,13.7125 Z "/>
			<path fill="#808080" fill-opacity="1" stroke-width="0.2" stroke-linejoin="round" d="M 25.7026,0.28064L 26.4524,6.20447C 27.1624,6.09534 27.8817,6.0105 28.6093,5.95068L 28.3929,0C 27.4854,0.0534668 26.588,0.147583 25.7026,0.28064 Z "/>
			<path fill="#808080" fill-opacity="1" stroke-width="0.2" stroke-linejoin="round" d="M 2.58023,17.9452L 6.59552,19.7655C 10.0246,13.2496 16.353,8.51746 24.0117,6.68298L 22.6649,0.899902C 13.701,3.21838 6.29568,9.58533 2.58023,17.9452 Z "/>
		</g>
		<ellipse fill="#12508C" fill-opacity="1" stroke-width="0.2" stroke-linejoin="round" cx="29.6833" cy="31.5941" rx="23.4503" ry="23.6036"/>
		<path fill="#FFFFFF" fill-opacity="1" stroke-width="0.2" stroke-linejoin="round" d="M 20.027,30.1105L 38.9304,22.3447L 30.9603,41.5546L 20.027,30.1105 Z "/>
	</g>
</svg>
